X:1
T:Non temer ch'io ti lassi
T:Paolo Scotto (fl 1507-1514)
T:Text by the composer. Included in Ottaviano Petrucci's 7th book of frottole (1504)
T:Non temer ch'io ti lassi
T:Frottola
C:Paolo Scotto (fl 1507-1514)
Z:Text by the composer. Included in Ottaviano
Z:Petrucci's 7th book of frottole (1504)
%%score [ 1 2 3 4 ]
L:1/8
M:2/2
K:C
V:1 treble nm="Soprano" snm="S."
V:2 treble nm="Alto" snm="A."
V:3 treble-8 transpose=-12 nm="Tenor" snm="T."
V:4 bass nm="Bass" snm="B."
V:1
 z4 z2 G2 | G2 D2 E2 F2 | G2 G2 z2 G2 | G2 G2 c2 c2 | B2 B2 z2 G2 | G2 A2 F2 G2 | E2 E2 z2 E2 | %7
w: Non|te- mer ch'io ti|las- si, si-|gno- ra\_in sem- pi-|ter- no. An-|che sta- ra\_in e-|ter- no la|
 F2 G4 F2 | G8- | G8- | G8- | G8- | G8- | G16 :| %14
w: mi- a fe-|de.|_|||||
V:2
 z4 z2 C2 | C2 B,A, G,2 D2 | D2 D2 z2 E2 | E2 D G2 E F2 | G2 G2 z2 D2 | E2 F2 A2 D2 | G4 z2 FE | %7
w: Non|te- mer _ ch'io ti|las- si, si-|gno- ra in sem- pi-|ter- no. An-|che sta- ra\_in e-|terno- la *|
 D2 C2 D4 | B,8 | D2 C4 B,A, | D2 B,2 D3 C | B,8 | C6 B,A, | B,16 :| %14
w: mi- a fe-|de.|An- che sta- ra\_in|e- ter- no la|mi-|a fe- *|de.|
V:3
 z4 z2 G2 | G2 B2 c2 A2 | B2 B2 z2 c2 | c2 B2 c2 c2 | d2 d2 z2 B2 | c4 d2 B2 | c2 BA G2 c2- | %7
w: Non|te- mer ch'io ti|las- si, si-|gno- ra\_in sem- pi-|ter- no. An-|che sta- ra\_in|e- ter- no la mi-|
 cBAG A4 | G8 | B2 e4 dc | B2 G3 ABc | d8 | e4 e4 | d16 :| %14
w: * * * a fe-|de.|An- che sta- ra\_in|e- ter- no _ _|la|mia fe-|de.|
V:4
 z4 z2 C,2 | C,2 G,2 C,2 D,2 | G,2 G,2 z2 C,2 | C,2 G,2 A,2 A,2 | G,2 G,2 z2 G,2 | %5
w: Non|te- mer ch'io ti|las- si, si-|gno- ra\_in sem- pi-|ter- no. An-|
 C,2 F,2 D,2 G,2 | C,4 C,4 | D,2 E,2 D,4 | G,,8 | %9
w: che sta- ra\_in e-|ter- no|la mia fe-|de.|
 G,2"^E se mai mi concedeEl ciel che dimostrarteIo possa in qualche parteEl voler mioVedrai el mio desioEsser sol di servirteNe so altro offerirteChe me stessoChe da longe & apressoSia ouunque mi vogliaNon vo che mai si scogliaDate il core" C,3 D,E,F, | %10
w: An- che sta- ra\_in e-|
 G,4"^Conserva pur l’amoreChe sempre fu  tra nuiCh’io sero quel ch’io fuiSempre tuo servoMa forsi che proternoSon stato col moi direPerho voglio partireHor resta in pace" G,4 | %11
w: ter- no|
 G,8 | C,8 | G,16 :| %14
w: la~mia|fe-|de.|

